apps/symbolic/eog-symbolic.svg

<?xml version="1.0" encoding="UTF-8" standalone="no"?>
<svg
   xmlns:dc="http://purl.org/dc/elements/1.1/"
   xmlns:cc="http://creativecommons.org/ns#"
   xmlns:rdf="http://www.w3.org/1999/02/22-rdf-syntax-ns#"
   xmlns:svg="http://www.w3.org/2000/svg"
   xmlns="http://www.w3.org/2000/svg"
   xmlns:sodipodi="http://sodipodi.sourceforge.net/DTD/sodipodi-0.dtd"
   xmlns:inkscape="http://www.inkscape.org/namespaces/inkscape"
   version="1.1"
   width="24"
   height="24"
   viewBox="0 0 24 24"
   id="svg2"
   inkscape:version="0.92.1 r15371"
   sodipodi:docname="eog-symbolic.svg">
  <metadata
     id="metadata10">
    <rdf:RDF>
      <cc:Work
         rdf:about="">
        <dc:format>image/svg+xml</dc:format>
        <dc:type
           rdf:resource="http://purl.org/dc/dcmitype/StillImage" />
      </cc:Work>
    </rdf:RDF>
  </metadata>
  <defs
     id="defs8" />
  <sodipodi:namedview
     pagecolor="#ffffff"
     bordercolor="#666666"
     borderopacity="1"
     objecttolerance="10"
     gridtolerance="10"
     guidetolerance="10"
     inkscape:pageopacity="0"
     inkscape:pageshadow="2"
     inkscape:window-width="640"
     inkscape:window-height="480"
     id="namedview6"
     showgrid="false"
     inkscape:zoom="8.9419546"
     inkscape:cx="-7.7214233"
     inkscape:cy="9.4516425"
     inkscape:current-layer="svg2" />
  <path
     style="opacity:1;fill:#bebebe;fill-opacity:1;fill-rule:nonzero;stroke:none;stroke-width:1.99863374;stroke-linecap:butt;stroke-linejoin:round;stroke-miterlimit:4;stroke-dasharray:none;stroke-dashoffset:0;stroke-opacity:1"
     d="M 3.9570312 3 C 3.4271809 3 3 3.4645089 3 4.0429688 L 3 19.955078 C 3 20.533538 3.4271808 21 3.9570312 21 L 20.042969 21 C 20.572818 21 21 20.533538 21 19.955078 L 21 4.0429688 C 21 3.4645089 20.572818 3 20.042969 3 L 3.9570312 3 z M 14.138672 9.4316406 L 18 14.568359 L 6 14.568359 L 9 10.71875 L 11.138672 13.292969 L 14.138672 9.4316406 z "
     id="path4531" />
  <path
     inkscape:connector-curvature="0"
     id="path4527"
     d="m -54.307913,24.471816 c -0.529851,0 -0.956753,0.463672 -0.956753,1.042132 v 15.913225 c 0,0.57846 0.426902,1.044643 0.956753,1.044643 h 16.086494 c 0.529849,0 0.956753,-0.466183 0.956753,-1.044643 V 25.513948 c 0,-0.57846 -0.426904,-1.042132 -0.956753,-1.042132 z m 0.971818,1.285714 h 14.142857 c 0.356143,0 0.642858,0.286714 0.642858,0.642857 v 14.142858 c 0,0.356142 -0.286715,0.642857 -0.642858,0.642857 h -14.142857 c -0.356143,0 -0.642857,-0.286715 -0.642857,-0.642857 V 26.400387 c 0,-0.356143 0.286714,-0.642857 0.642857,-0.642857 z"
     style="opacity:1;fill:#bebebe;fill-opacity:1;fill-rule:nonzero;stroke:none;stroke-width:1.99863374;stroke-linecap:butt;stroke-linejoin:round;stroke-miterlimit:4;stroke-dasharray:none;stroke-dashoffset:0;stroke-opacity:1" />
</svg>

<svg xmlns="http://www.w3.org/2000/svg" viewBox="0 0 24 24">
  <path fill="#bebebe" d="M3.957 3C3.427 3 3 3.465 3 4.043v15.912c0 .579.427 1.045.957 1.045h16.086c.53 0 .957-.466.957-1.045V4.043C21 3.465 20.573 3 20.043 3H3.957zm10.182 6.432L18 14.568H6l3-3.85 2.139 2.575 3-3.861zm-68.447 15.04c-.53 0-.957.463-.957 1.042v15.913c0 .579.427 1.045.957 1.045h16.087c.53 0 .956-.466.956-1.045V25.514c0-.579-.427-1.042-.956-1.042zm.972 1.286h14.143c.356 0 .643.286.643.642v14.143a.641.641 0 0 1-.643.643h-14.143a.641.641 0 0 1-.643-.643V26.4c0-.356.287-.642.643-.642z"/>
</svg>
